X:1031
T:Lord Finlater's Reel.
M:C|
L:1/8
Q:1/2=104
I: :: ::
N:Aird just prints the first part ending D and the second D2, no variants
Z:Jack Campin * www.campin.me.uk * 2009
K:D
  d>efe d>BAd      |B>ABd e/e/e eg|(f>ef)b afef|dBAF D/D/D [1 D2:|\
                                                           [2 D ||
B|AD`FD AD d/c/B/A/|BEGE  B   e2 B| d a2 g fefd|egfe d/d/d [1 d :|\
                                                           [2 d2||

